app/dist/common/images/williams.svg

<svg height="18" width="18" xmlns="http://www.w3.org/2000/svg"><path d="m0 0h18v18h-18z" fill="#1478c7"/><path d="m15.04 5h-1.879l-2.161 4.506v-4.506h-1.883l-2.117 4.506v-4.506h-2v9h1.89l2.11-4.703v4.703h2.13z" fill="#fff"/></svg>

<!-- by TradingView --><svg width="18" height="18" xmlns="http://www.w3.org/2000/svg"><path fill="#1478C7" d="M0 0h18v18H0z"/><path d="M15.04 5h-1.879L11 9.506V5H9.117L7 9.506V5H5v9h1.89L9 9.297V14h2.13l3.91-9z" fill="#fff"/></svg>
